X:1
T:Alma Mater, SM
T:Alma Mater, SM
T:Richard Redhead (1820-1901)
T:Public Domain Courtesy of the Cyber Hymnal™
C:Richard Redhead (1820-1901)
Z:Public Domain
Z:Courtesy of the Cyber Hymnal™
%%score ( 1 2 ) ( 3 4 )
L:1/8
Q:1/4=115
M:4/4
K:G
V:1 treble 
V:2 treble 
V:3 bass 
V:4 bass 
V:1
 [Gd]2 | [GB]2 G2 [GB]2 [FA]2 | G6 [DB]2 | [DA]2 [Fd]2 d2 z x3 | [Fd]6 [DB]2 | %5
 [Gc]2 [Dc]2 [DB]2 G2 | [EA]2 [EG]2 [DF]2 [DG]2 | ([EG][FA]) [GB]2 [GA]2 [FA]2 x | G6 |] %9
V:2
 x2 | x2 G2 x4 | G6 x2 | x4 E3 ^c2 E | x8 | x6 G2 | x8 | x9 | G6 |] %9
V:3
 [G,B,]2 | [G,D]2 [G,B,]2 [D,D]2 [D,C]2 | [G,B,]6 G,2 | [F,A,]2 [D,A,]2 A,2 [A,,A,]2 x2 | %4
 [D,A,]6 G,2 | [G,C]2 [F,A,]2 [G,B,]2 [E,B,]2 | [C,E]2 [^C,A,]2 [D,A,]2 [B,,G,]2 | %7
 [C,C]2 [G,,D]2 D3 z C | [G,,B,]6 |] %9
V:4
 x2 | x8 | x6 G,2 | x4 A,2 x4 | x6 G,2 | x8 | x8 | x4 D,2 D,2 x | x6 |] %9

